!!!OTL: HEITER WAR DER FRUEHLING
!!!ARE: Europa, Mitteleuropa, Deutschland, Hildburghausen
!!!SCT: B0485
!!!YEM: Copyright 1995, estate of Helmut Schaffrath.
**kern
*ICvox
*Ivox
*M4/4
*k[b-e-a-]
*E-:
{8b-
8a-
=1
4.g
8e-
8e-
8e-
8cc
8b-
=2
8b-
8a-
4a-
4r}
{8a-
8g
=3
4.f
8g
8a-
8cc
8b-
8a-
=4
2g
4r}
{8b-
8a-
=5
4.g
8e-
8e-
8e-
8cc
8b-
=6
8b-
8a-
4a-
4r}
{8a-
8g
=7
4.f
8g
8a-
8cc
8b-
8a-
=8
2g
4r}
{8b-
8b-
=9
4.ee-
8b-
8cc
8b-
8a-
8g
=10
4cc
4cc
4r}
{8ee-
8cc
=11
4.b-
8g
8cc
8b-
8a-
8g
=12
2f
4r}
{8b-
8b-
=13
4.ee-
8b-
8cc
8b-
8a-
8g
=14
4cc
4cc
4r}
{8ee-
8cc
=15
4.b-
8g
8cc
8b-
8a-
8f
=16
2e-
4r}
==
!!!AGN: Liebes - Lied, Leid, Klage
!!!ONB: ESAC (Essen Associative Code) Database: BOEHME
!!!AMT: simple quadruple
!!!AIN: vox
!!!EED: Helmut Schaffrath
!!!EEV: 1.0
*-
